; generated by PrusaSlicer 2.5.0+win64 on 2023-01-23 at 10:02:33 UTC

; 

; external perimeters extrusion width = 0.45mm
; perimeters extrusion width = 0.45mm
; infill extrusion width = 0.45mm
; solid infill extrusion width = 0.45mm
; top infill extrusion width = 0.40mm
; first layer extrusion width = 0.42mm

M107
M190 S60 ; set bed temperature and wait for it to be reached
M104 S205 ; set temperature
;TYPE:Custom
PRINT_START Z_ADJUST=-0.28
M109 S205 ; set temperature and wait for it to be reached
G21 ; set units to millimeters
G90 ; use absolute coordinates
M82 ; use absolute distances for extrusion
G92 E0
; Filament gcode
M107
;LAYER_CHANGE
;Z:0.4
;HEIGHT:0.4
G1 Z.4 F18000
G1 E-2 F2400
G92 E0
G1 X113.699 Y113.822 F18000
G1 E2 F2400
;TYPE:Skirt/Brim
;WIDTH:0.42
G1 F3000
G1 X114.735 Y112.89 E2.07747
G1 X115.58 Y112.275 E2.13555
G1 X116.788 Y111.578 E2.21303
G1 X117.743 Y111.153 E2.27111
G1 X119.068 Y110.722 E2.34858
G1 X120.091 Y110.505 E2.40667
G1 X121.477 Y110.359 E2.48414
G1 X178.523 Y110.359 E5.6542
G1 X179.909 Y110.505 E5.73166
G1 X180.931 Y110.722 E5.78975
G1 X182.257 Y111.153 E5.86722
G1 X183.212 Y111.578 E5.92531
G1 X184.419 Y112.275 E6.00277
G1 X185.265 Y112.889 E6.06086
G1 X186.301 Y113.822 E6.13834
G1 X187.001 Y114.599 E6.19643
G1 X187.82 Y115.727 E6.27391
G1 X188.343 Y116.632 E6.33199
G1 X188.91 Y117.906 E6.40945
G1 X189.233 Y118.9 E6.46754
G1 X189.522 Y120.263 E6.54499
G1 X189.632 Y121.303 E6.60308
G1 X189.668 Y178 E9.7538
G1 X189.522 Y179.737 E9.85066
G1 X189.233 Y181.1 E9.92811
G1 X188.91 Y182.094 E9.9862
G1 X188.343 Y183.368 E10.06366
G1 X187.82 Y184.273 E10.12175
G1 X187.001 Y185.401 E10.19921
G1 X186.301 Y186.178 E10.2573
G1 X185.265 Y187.111 E10.33479
G1 X184.419 Y187.725 E10.39288
G1 X183.213 Y188.422 E10.47032
G1 X182.258 Y188.847 E10.52841
G1 X180.931 Y189.278 E10.60591
G1 X179.909 Y189.495 E10.664
G1 X178.523 Y189.641 E10.74145
G1 X121.477 Y189.641 E13.91151
G1 X120.091 Y189.495 E13.98897
G1 X119.069 Y189.278 E14.04705
G1 X117.742 Y188.847 E14.12455
G1 X116.788 Y188.422 E14.18263
G1 X115.58 Y187.725 E14.26009
G1 X114.735 Y187.11 E14.31818
G1 X113.699 Y186.178 E14.39565
G1 X112.999 Y185.401 E14.45373
G1 X112.18 Y184.273 E14.53119
G1 X111.657 Y183.368 E14.58928
G1 X111.09 Y182.094 E14.66676
G1 X110.767 Y181.1 E14.72484
G1 X110.477 Y179.737 E14.80231
G1 X110.332 Y178 E14.89916
G1 X110.332 Y122 E18.01113
G1 X110.477 Y120.263 E18.10797
G1 X110.767 Y118.9 E18.18544
G1 X111.09 Y117.906 E18.24353
G1 X111.657 Y116.632 E18.321
G1 X112.18 Y115.727 E18.37909
G1 X112.999 Y114.599 E18.45655
G1 X113.659 Y113.867 E18.51131
G1 X113.907 Y114.091 F18000
G1 F3000
G1 X114.931 Y113.16 E18.58821
G1 X115.777 Y112.545 E18.6463
G1 X116.924 Y111.883 E18.71989
G1 X117.879 Y111.458 E18.77797
G1 X119.138 Y111.049 E18.85156
G1 X120.16 Y110.832 E18.90965
G1 X121.477 Y110.693 E18.98323
G1 X178.523 Y110.693 E22.15329
G1 X179.839 Y110.832 E22.22687
G1 X180.862 Y111.049 E22.28496
G1 X182.121 Y111.458 E22.35856
G1 X183.076 Y111.883 E22.41664
G1 X184.223 Y112.545 E22.49022
G1 X185.069 Y113.16 E22.54831
G1 X186.053 Y114.046 E22.62191
G1 X186.752 Y114.823 E22.68
G1 X187.531 Y115.894 E22.75359
G1 X188.053 Y116.799 E22.81168
G1 X188.592 Y118.009 E22.88525
G1 X188.915 Y119.003 E22.94334
G1 X189.19 Y120.298 E23.01691
G1 X189.299 Y121.338 E23.075
G1 X189.334 Y178 E26.22378
G1 X189.19 Y179.702 E26.31869
G1 X188.915 Y180.997 E26.39227
G1 X188.592 Y181.991 E26.45036
G1 X188.053 Y183.201 E26.52393
G1 X187.531 Y184.106 E26.58202
G1 X186.752 Y185.177 E26.65561
G1 X186.053 Y185.954 E26.71369
G1 X185.069 Y186.84 E26.78729
G1 X184.223 Y187.455 E26.84538
G1 X183.077 Y188.117 E26.91895
G1 X182.122 Y188.542 E26.97704
G1 X180.862 Y188.951 E27.05065
G1 X179.839 Y189.168 E27.10874
G1 X178.523 Y189.307 E27.18231
G1 X121.477 Y189.307 E30.35237
G1 X120.161 Y189.168 E30.42595
G1 X119.138 Y188.951 E30.48403
G1 X117.878 Y188.542 E30.55764
G1 X116.923 Y188.117 E30.61573
G1 X115.777 Y187.455 E30.68931
G1 X114.931 Y186.84 E30.74739
G1 X113.947 Y185.954 E30.82098
G1 X113.248 Y185.177 E30.87907
G1 X112.469 Y184.106 E30.95265
G1 X111.947 Y183.201 E31.01073
G1 X111.408 Y181.991 E31.08433
G1 X111.085 Y180.997 E31.14241
G1 X110.81 Y179.702 E31.216
G1 X110.666 Y178 E31.3109
G1 X110.666 Y122 E34.42287
G1 X110.81 Y120.298 E34.51778
G1 X111.085 Y119.003 E34.59136
G1 X111.408 Y118.009 E34.64945
G1 X111.947 Y116.799 E34.72304
G1 X112.469 Y115.894 E34.78113
G1 X113.248 Y114.823 E34.85471
G1 X113.867 Y114.135 E34.90613
G1 E32.90613 F2400
G92 E0
G1 X179.467 Y174.132 F18000
G1 E2 F2400
;TYPE:Perimeter
;WIDTH:0.42
G1 F3000
G1 X179.544 Y174.201 E2.00578
G1 X180.058 Y174.435 E2.03718
G1 X180.755 Y174.941 E2.08501
G1 X181.331 Y175.58 E2.13283
G1 X181.761 Y176.326 E2.18066
G1 X182.027 Y177.144 E2.22848
G1 X182.117 Y178 E2.27631
G1 X182.027 Y178.856 E2.32414
G1 X181.761 Y179.674 E2.37197
G1 X181.331 Y180.42 E2.41979
G1 X180.755 Y181.059 E2.46762
G1 X180.058 Y181.565 E2.51545
G1 X179.272 Y181.915 E2.56327
G1 X178.43 Y182.094 E2.6111
G1 X177.57 Y182.094 E2.65893
G1 X176.728 Y181.915 E2.70676
G1 X175.942 Y181.565 E2.75458
G1 X175.245 Y181.059 E2.80241
G1 X174.671 Y180.422 E2.85007
G1 X174.173 Y179.544 E2.90618
G1 X173.937 Y179.281 E2.92579
G1 X173.711 Y179.165 E2.93995
G1 X173.446 Y179.122 E2.95484
G1 X126.554 Y179.122 E5.5607
G1 X126.409 Y179.134 E5.56875
G1 X126.063 Y179.281 E5.58967
G1 X125.827 Y179.544 E5.60929
G1 X125.329 Y180.422 E5.66539
G1 X124.755 Y181.059 E5.71305
G1 X124.058 Y181.565 E5.76088
G1 X123.272 Y181.915 E5.80871
G1 X122.43 Y182.094 E5.85653
G1 X121.57 Y182.094 E5.90436
G1 X120.728 Y181.915 E5.95219
G1 X119.942 Y181.565 E6.00001
G1 X119.245 Y181.059 E6.04784
G1 X118.669 Y180.42 E6.09567
G1 X118.239 Y179.674 E6.1435
G1 X117.973 Y178.856 E6.19132
G1 X117.883 Y178 E6.23915
G1 X117.973 Y177.144 E6.28698
G1 X118.239 Y176.326 E6.33481
G1 X118.669 Y175.58 E6.38263
G1 X119.245 Y174.941 E6.43046
G1 X119.942 Y174.435 E6.47829
G1 X120.383 Y174.238 E6.50512
G1 X120.632 Y174.068 E6.52191
G1 X120.837 Y173.735 E6.54361
G1 X120.878 Y173.475 E6.55824
G1 X120.878 Y126.525 E9.16731
G1 X120.837 Y126.265 E9.18193
G1 X120.724 Y126.041 E9.19587
G1 X120.456 Y125.799 E9.21594
G1 X119.942 Y125.565 E9.24734
G1 X119.245 Y125.059 E9.29517
G1 X118.669 Y124.42 E9.34299
G1 X118.239 Y123.674 E9.39082
G1 X117.973 Y122.856 E9.43865
G1 X117.883 Y122 E9.48648
G1 X117.973 Y121.144 E9.5343
G1 X118.239 Y120.326 E9.58213
G1 X118.669 Y119.58 E9.62996
G1 X119.245 Y118.941 E9.67778
G1 X119.942 Y118.435 E9.72561
G1 X120.728 Y118.085 E9.77344
G1 X121.57 Y117.906 E9.82127
G1 X122.43 Y117.906 E9.86909
G1 X123.272 Y118.085 E9.91692
G1 X124.058 Y118.435 E9.96475
G1 X124.755 Y118.941 E10.01258
G1 X125.329 Y119.578 E10.06023
G1 X125.827 Y120.456 E10.11634
G1 X126.063 Y120.719 E10.13595
G1 X126.289 Y120.835 E10.15011
G1 X126.554 Y120.878 E10.165
G1 X173.446 Y120.878 E12.77086
G1 X173.591 Y120.866 E12.77891
G1 X173.937 Y120.719 E12.79984
G1 X174.173 Y120.456 E12.81945
G1 X174.671 Y119.578 E12.87556
G1 X175.245 Y118.941 E12.92321
G1 X175.942 Y118.435 E12.97104
G1 X176.728 Y118.085 E13.01887
G1 X177.57 Y117.906 E13.0667
G1 X178.43 Y117.906 E13.11452
G1 X179.272 Y118.085 E13.16235
G1 X180.058 Y118.435 E13.21018
G1 X180.755 Y118.941 E13.25801
G1 X181.331 Y119.58 E13.30583
G1 X181.761 Y120.326 E13.35366
G1 X182.027 Y121.144 E13.40149
G1 X182.117 Y122 E13.44932
G1 X182.027 Y122.856 E13.49714
G1 X181.761 Y123.674 E13.54497
G1 X181.331 Y124.42 E13.5928
G1 X180.755 Y125.059 E13.64062
G1 X180.058 Y125.565 E13.68845
G1 X179.617 Y125.762 E13.71529
G1 X179.368 Y125.932 E13.73208
G1 X179.163 Y126.265 E13.75378
G1 X179.122 Y126.525 E13.76841
G1 X179.122 Y173.475 E16.37748
G1 X179.134 Y173.62 E16.38553
G1 X179.276 Y173.959 E16.40597
G1 X179.422 Y174.091 E16.41693
G1 X179.69 Y173.881 F18000
G1 F3000
G1 X179.753 Y173.933 E16.42147
G1 X180.226 Y174.144 E16.45025
G1 X180.98 Y174.691 E16.50199
G1 X181.602 Y175.383 E16.55371
G1 X182.068 Y176.189 E16.60544
G1 X182.356 Y177.074 E16.65717
G1 X182.453 Y178 E16.70891
G1 X182.356 Y178.926 E16.76064
G1 X182.068 Y179.811 E16.81237
G1 X181.602 Y180.617 E16.8641
G1 X180.98 Y181.309 E16.91583
G1 X180.226 Y181.856 E16.96756
G1 X179.376 Y182.235 E17.01929
G1 X178.465 Y182.428 E17.07102
G1 X177.535 Y182.428 E17.12275
G1 X176.624 Y182.235 E17.17448
G1 X175.774 Y181.856 E17.22621
G1 X175.02 Y181.309 E17.27795
G1 X174.399 Y180.619 E17.32957
G1 X173.882 Y179.709 E17.38769
G1 X173.741 Y179.552 E17.39946
G1 X173.446 Y179.456 E17.41667
G1 X126.554 Y179.456 E20.02253
G1 X126.467 Y179.463 E20.02736
G1 X126.259 Y179.552 E20.03992
G1 X126.118 Y179.709 E20.05169
G1 X125.601 Y180.619 E20.10981
G1 X124.98 Y181.309 E20.16143
G1 X124.226 Y181.856 E20.21316
G1 X123.376 Y182.235 E20.2649
G1 X122.465 Y182.428 E20.31663
G1 X121.535 Y182.428 E20.36836
G1 X120.624 Y182.235 E20.42009
G1 X119.774 Y181.856 E20.47182
G1 X119.02 Y181.309 E20.52355
G1 X118.398 Y180.617 E20.57528
G1 X117.932 Y179.811 E20.62701
G1 X117.644 Y178.926 E20.67874
G1 X117.547 Y178 E20.73047
G1 X117.644 Y177.074 E20.78221
G1 X117.932 Y176.189 E20.83393
G1 X118.398 Y175.383 E20.88566
G1 X119.02 Y174.691 E20.93739
G1 X119.774 Y174.144 E20.98912
G1 X120.114 Y173.992 E21.00982
G1 X120.396 Y173.831 E21.02791
G1 X120.519 Y173.631 E21.04093
G1 X120.544 Y173.475 E21.04971
G1 X120.544 Y126.525 E23.65878
G1 X120.452 Y126.235 E23.67571
G1 X120.247 Y126.067 E23.69041
G1 X119.774 Y125.856 E23.7192
G1 X119.02 Y125.309 E23.77093
G1 X118.398 Y124.617 E23.82266
G1 X117.932 Y123.811 E23.87439
G1 X117.644 Y122.926 E23.92612
G1 X117.547 Y122 E23.97785
G1 X117.644 Y121.074 E24.02958
G1 X117.932 Y120.189 E24.08131
G1 X118.398 Y119.383 E24.13305
G1 X119.02 Y118.691 E24.18478
G1 X119.774 Y118.144 E24.23651
G1 X120.624 Y117.765 E24.28824
G1 X121.535 Y117.572 E24.33997
G1 X122.465 Y117.572 E24.3917
G1 X123.376 Y117.765 E24.44343
G1 X124.226 Y118.144 E24.49516
G1 X124.98 Y118.691 E24.54689
G1 X125.601 Y119.381 E24.59852
G1 X126.118 Y120.291 E24.65664
G1 X126.259 Y120.448 E24.66841
G1 X126.554 Y120.544 E24.68562
G1 X173.446 Y120.544 E27.29148
G1 X173.533 Y120.537 E27.29631
G1 X173.741 Y120.448 E27.30887
G1 X173.882 Y120.291 E27.32064
G1 X174.399 Y119.381 E27.37876
G1 X175.02 Y118.691 E27.43038
G1 X175.774 Y118.144 E27.48211
G1 X176.624 Y117.765 E27.53384
G1 X177.535 Y117.572 E27.58558
G1 X178.465 Y117.572 E27.6373
G1 X179.376 Y117.765 E27.68904
G1 X180.226 Y118.144 E27.74077
G1 X180.98 Y118.691 E27.7925
G1 X181.602 Y119.383 E27.84423
G1 X182.068 Y120.189 E27.89596
G1 X182.356 Y121.074 E27.94769
G1 X182.453 Y122 E27.99942
G1 X182.356 Y122.926 E28.05115
G1 X182.068 Y123.811 E28.10288
G1 X181.602 Y124.617 E28.15461
G1 X180.98 Y125.309 E28.20634
G1 X180.226 Y125.856 E28.25808
G1 X179.753 Y126.067 E28.28686
G1 X179.548 Y126.235 E28.30157
G1 X179.456 Y126.525 E28.3185
G1 X179.456 Y173.475 E30.92757
G1 X179.463 Y173.562 E30.9324
G1 X179.548 Y173.765 E30.94466
G1 X179.644 Y173.843 E30.9515
G1 X179.889 Y173.628 F18000
;TYPE:External perimeter
G1 F3000
G1 X180.394 Y173.853 E30.98224
G1 X181.204 Y174.441 E31.03787
G1 X181.874 Y175.185 E31.0935
G1 X182.375 Y176.052 E31.14914
G1 X182.684 Y177.004 E31.20477
G1 X182.789 Y178 E31.26041
G1 X182.684 Y178.996 E31.31604
G1 X182.375 Y179.948 E31.37167
G1 X181.874 Y180.815 E31.42731
G1 X181.204 Y181.559 E31.48294
G1 X180.394 Y182.147 E31.53858
G1 X179.48 Y182.554 E31.59421
G1 X178.501 Y182.763 E31.64985
G1 X177.499 Y182.763 E31.70548
G1 X176.52 Y182.554 E31.76111
G1 X175.606 Y182.147 E31.81675
G1 X174.796 Y181.559 E31.87238
G1 X174.126 Y180.815 E31.92798
G1 X173.574 Y179.849 E31.98983
G1 X173.446 Y179.79 E31.99764
G1 X126.554 Y179.79 E34.6035
G1 X126.408 Y179.875 E34.61284
G1 X125.874 Y180.815 E34.67297
G1 X125.204 Y181.559 E34.72857
G1 X124.394 Y182.147 E34.7842
G1 X123.48 Y182.554 E34.83984
G1 X122.501 Y182.763 E34.89547
G1 X121.499 Y182.763 E34.9511
G1 X120.52 Y182.554 E35.00674
G1 X119.606 Y182.147 E35.06237
G1 X118.796 Y181.559 E35.11801
G1 X118.126 Y180.815 E35.17364
G1 X117.625 Y179.948 E35.22927
G1 X117.316 Y178.996 E35.28491
G1 X117.211 Y178 E35.34054
G1 X117.316 Y177.004 E35.39618
G1 X117.625 Y176.052 E35.45181
G1 X118.126 Y175.185 E35.50744
G1 X118.796 Y174.441 E35.56308
G1 X119.606 Y173.853 E35.61871
G1 X120.142 Y173.609 E35.65146
G1 X120.21 Y173.475 E35.65982
G1 X120.21 Y126.525 E38.26889
G1 X120.202 Y126.473 E38.27181
G1 X120.111 Y126.372 E38.27935
G1 X119.606 Y126.147 E38.31008
G1 X118.796 Y125.559 E38.36572
G1 X118.126 Y124.815 E38.42135
G1 X117.625 Y123.948 E38.47699
G1 X117.316 Y122.996 E38.53262
G1 X117.211 Y122 E38.58826
G1 X117.316 Y121.004 E38.64389
G1 X117.625 Y120.052 E38.69952
G1 X118.126 Y119.185 E38.75516
G1 X118.796 Y118.441 E38.81079
G1 X119.606 Y117.853 E38.86643
G1 X120.52 Y117.446 E38.92206
G1 X121.499 Y117.237 E38.9777
G1 X122.501 Y117.237 E39.03333
G1 X123.48 Y117.446 E39.08896
G1 X124.394 Y117.853 E39.1446
G1 X125.204 Y118.441 E39.20023
G1 X125.874 Y119.185 E39.25583
G1 X126.426 Y120.151 E39.31768
G1 X126.554 Y120.21 E39.32549
G1 X173.446 Y120.21 E41.93135
G1 X173.592 Y120.125 E41.94069
G1 X174.126 Y119.185 E42.00082
G1 X174.796 Y118.441 E42.05641
G1 X175.606 Y117.853 E42.11205
G1 X176.52 Y117.446 E42.16768
G1 X177.499 Y117.237 E42.22332
G1 X178.501 Y117.237 E42.27895
G1 X179.48 Y117.446 E42.33459
G1 X180.394 Y117.853 E42.39022
G1 X181.204 Y118.441 E42.44586
G1 X181.874 Y119.185 E42.50149
G1 X182.375 Y120.052 E42.55713
G1 X182.684 Y121.004 E42.61276
G1 X182.789 Y122 E42.66839
G1 X182.684 Y122.996 E42.72403
G1 X182.375 Y123.948 E42.77966
G1 X181.874 Y124.815 E42.8353
G1 X181.204 Y125.559 E42.89093
G1 X180.394 Y126.147 E42.94657
G1 X179.858 Y126.391 E42.97932
G1 X179.79 Y126.525 E42.98767
G1 X179.79 Y173.475 E45.59674
G1 X179.798 Y173.527 E45.59967
G1 X179.849 Y173.583 E45.60387
G1 X179.854 Y174.026 F18000
G1 E43.60387 F2400
G92 E0
G1 X124.444 Y124.305 F18000
G1 E2 F2400
;TYPE:Perimeter
G1 F3000
G1 X124.612 Y124.196 E2.01111
G1 X124.957 Y124.122 E2.03072
G1 X148.288 Y124.122 E3.32725
G1 X148.452 Y123.792 E3.34772
G1 X148.813 Y123.634 E3.3696
G1 X151.043 Y123.622 E3.49353
G1 X151.316 Y123.668 E3.50894
G1 X151.548 Y123.792 E3.52354
G1 X151.712 Y124.122 E3.54402
G1 X175.043 Y124.122 E4.84055
G1 X175.388 Y124.196 E4.86016
G1 X175.672 Y124.408 E4.87987
G1 X175.837 Y124.698 E4.89839
G1 X175.878 Y124.957 E4.91298
G1 X175.878 Y148.288 E6.20951
G1 X176.208 Y148.452 E6.22998
G1 X176.332 Y148.684 E6.24459
G1 X176.378 Y148.957 E6.26
G1 X176.378 Y151.043 E6.37591
G1 X176.332 Y151.316 E6.39132
G1 X176.208 Y151.548 E6.40592
G1 X175.878 Y151.712 E6.42639
G1 X175.878 Y175.043 E7.72292
G1 X175.8 Y175.396 E7.743
G1 X175.598 Y175.667 E7.7618
G1 X175.388 Y175.804 E7.77574
G1 X175.043 Y175.878 E7.79535
G1 X151.712 Y175.878 E9.09188
G1 X151.548 Y176.208 E9.11235
G1 X151.187 Y176.366 E9.13423
G1 X148.957 Y176.378 E9.25816
G1 X148.684 Y176.332 E9.27357
G1 X148.452 Y176.208 E9.28817
G1 X148.288 Y175.878 E9.30864
G1 X124.957 Y175.878 E10.60517
G1 X124.612 Y175.804 E10.62479
G1 X124.328 Y175.592 E10.6445
G1 X124.163 Y175.302 E10.66301
G1 X124.122 Y175.043 E10.67761
G1 X124.122 Y147.712 E12.19642
G1 X123.792 Y147.548 E12.2169
G1 X123.634 Y147.187 E12.23877
G1 X123.622 Y144.957 E12.3627
G1 X123.668 Y144.684 E12.37811
G1 X123.792 Y144.452 E12.39272
G1 X124.122 Y144.288 E12.41319
G1 X124.122 Y124.957 E13.48743
G1 X124.2 Y124.604 E13.50751
G1 X124.396 Y124.34 E13.52581
G1 X124.64 Y124.58 F18000
G1 F3000
G1 X124.675 Y124.542 E13.52865
G1 X124.838 Y124.47 E13.53853
G1 X125.755 Y124.456 E13.58952
G1 X148.456 Y124.456 E14.85104
G1 X148.654 Y124.058 E14.87573
G1 X148.87 Y123.963 E14.88886
G1 X151.043 Y123.956 E15.00958
G1 X151.207 Y123.983 E15.01883
G1 X151.346 Y124.058 E15.02759
G1 X151.544 Y124.456 E15.05228
G1 X175.043 Y124.456 E16.35816
G1 X175.25 Y124.501 E16.36993
G1 X175.453 Y124.669 E16.3846
G1 X175.537 Y124.872 E16.3968
G1 X175.544 Y125.741 E16.44509
G1 X175.544 Y148.456 E17.70741
G1 X175.942 Y148.654 E17.7321
G1 X176.017 Y148.793 E17.74086
G1 X176.044 Y148.957 E17.75011
G1 X176.044 Y151.043 E17.86602
G1 X176.017 Y151.207 E17.87527
G1 X175.942 Y151.346 E17.88403
G1 X175.544 Y151.544 E17.90872
G1 X175.544 Y175.043 E19.2146
